assets/img/social/facebook.svg

<svg width="31" height="31" viewBox="0 0 31 31" fill="none" xmlns="http://www.w3.org/2000/svg">
<circle cx="15.5" cy="15.5" r="15.5" fill="#45619D"/>
<path d="M17.014 29V17.141H20.993L21.59 12.518H17.014V9.56691C17.014 8.22886 17.3841 7.31699 19.305 7.31699L21.751 7.31599V3.181C21.328 3.12603 19.876 3 18.186 3C14.657 3 12.241 5.15406 12.241 9.10905V12.518H8.25V17.141H12.241V29H17.014Z" fill="white"/>
</svg>

<svg width="31" height="31" fill="none" xmlns="http://www.w3.org/2000/svg"><circle cx="15.5" cy="15.5" r="15.5" fill="#45619D"/><path d="M17.014 29V17.141h3.979l.597-4.623h-4.576V9.567c0-1.338.37-2.25 2.291-2.25l2.446-.001V3.181C21.328 3.126 19.876 3 18.186 3c-3.529 0-5.945 2.154-5.945 6.109v3.409H8.25v4.623h3.991V29h4.773z" fill="#fff"/></svg>
